!!!OTL: Turn the Glasses Over
!!!ARE: United States of America; Virginia
!!!ONB: Virginian Singing Game
!!!AMD: Pentatonic
**kern
=1-
*clefG2
*k[f#]
*M4/4
*MM112
{4g/
8g/L
8g/J
4e/
4d/}
=2
{4g/
8g/L
8g/J
4e/
4d/}
=3
{4g/
8g/L
8g/J
4b\
4dd\
=4
4b\
4g/
4dd\
4b\}
=5
{4dd\
4b\
4dd\
4b\
=6
4g/
4g/
4e/
4d/}
=7
{4g/
8g/L
8g/J
8b\L
8b\J
8dd\L
8dd\J
=8
8b\L
8b\J
8a/L
8a/J
4g/
4g/}
=9
{4b\
4dd\
2dd\
=10
4b\
4dd\
2dd\}
=11
{4b\
4dd\
4ee\
8dd\L
8b\J
=12
2b\
2a/}
=13
{8g/L
8g/J
4g/
4e/
8d/L
8d/J
=14
8g/L
8g/J
8g/L
8g/J
4e/}
{8d/L
8d/J
=15
4g/
4b\
4dd\
8b\L
8b\J
=16
2a/
2g/}
==
*-
